packages/foundations/assets/icons/functional/images/communication/speech_bubbles_24.svg

<svg width="24" height="24" viewBox="0 0 24 24" fill="none" xmlns="http://www.w3.org/2000/svg">
<g clip-path="url(#clip0_185_516)">
<path fill-rule="evenodd" clip-rule="evenodd" d="M3.0312 22C3.25 22 3.515 21.9225 3.7188 21.7187L7.1326 18.3026C7.3198 18.1154 7.5694 18.0218 7.819 18.0218H13.1544C14.7145 18.0218 15.9937 16.6802 15.9937 14.9953C15.9937 14.4337 15.5304 14 15 14C14.4384 14 13.9969 14.4649 13.9969 14.9953C13.9969 15.6505 13.4977 16.025 12.9984 16.025H7.663C6.9454 16.025 6.2278 16.3682 5.6974 16.8986L4 18.5937V11.0312C4 10.3437 4.5 10 5 10C5.6562 10 6.0094 9.5039 6.0094 9.0359C6.0094 8.4743 5.5625 8 5 8C3.2188 8 2 9.375 2 11.0312V21.0312V21.0937C2.0625 21.6562 2.5312 22 3.0312 22ZM19 2C20.6562 2 22 3.3125 22 4.9688V15C22 15.5938 21.5312 16 20.9688 16C20.75 16 20.5 15.9062 20.2812 15.7188L16.8674 12.312C16.6802 12.1248 16.4306 12 16.181 12H11.0016C9.3479 12 8.0062 10.6583 8.0062 9.0359L8 4.9688C8 3.3125 9.3438 2 11 2H19ZM19.0938 3.9688H11C10.4375 3.9688 10 4.4375 10 4.9688L10.0031 9.0359C10.0031 9.5663 10.4399 10.0031 11.0016 10.0031H16.181C16.961 10.0031 17.7098 10.3463 18.3026 10.8768L20 12.5938V4.9688C20 4.4688 19.625 3.9688 19.0938 3.9688Z" fill="#1A1C1F"/>
</g>
<defs>
<clipPath id="clip0_185_516">
<rect width="24" height="24" fill="white"/>
</clipPath>
</defs>
</svg>

<svg xmlns="http://www.w3.org/2000/svg" width="24" height="24" fill="none"><g clip-path="url(#a)"><path fill="#1A1C1F" fill-rule="evenodd" d="M3.031 22a.98.98 0 0 0 .688-.281l3.414-3.416a.97.97 0 0 1 .686-.281h5.335c1.56 0 2.84-1.342 2.84-3.027A1 1 0 0 0 15 14c-.562 0-1.003.465-1.003.995 0 .656-.5 1.03-.999 1.03H7.663c-.718 0-1.435.343-1.966.874L4 18.594V11.03C4 10.344 4.5 10 5 10c.656 0 1.01-.496 1.01-.964C6.01 8.474 5.562 8 5 8c-1.781 0-3 1.375-3 3.031v10.063c.063.562.531.906 1.031.906M19 2c1.656 0 3 1.313 3 2.969V15c0 .594-.469 1-1.031 1-.219 0-.469-.094-.688-.281l-3.414-3.407c-.187-.187-.436-.312-.686-.312h-5.18c-1.653 0-2.995-1.342-2.995-2.964L8 4.969C8 3.312 9.344 2 11 2zm.094 1.969H11c-.562 0-1 .469-1 1l.003 4.067c0 .53.437.967.999.967h5.179c.78 0 1.529.343 2.122.874L20 12.594V4.969c0-.5-.375-1-.906-1" clip-rule="evenodd"/></g><defs><clipPath id="a"><path fill="#fff" d="M0 0h24v24H0z"/></clipPath></defs></svg>
